brandFactory_export/3.Masa/Regla medir medida_3Masa.svg

<?xml version="1.0" encoding="UTF-8"?>
<svg width="24px" height="24px" viewBox="0 0 24 24" version="1.1" xmlns="http://www.w3.org/2000/svg" xmlns:xlink="http://www.w3.org/1999/xlink">
    <title>3.Masa/Regla medir medida_3Masa</title>
    <g id="Symbols" stroke="none" stroke-width="1" fill="none" fill-rule="evenodd">
        <g id="3.Masa/Regla-medir-medida_3Masa" fill="#5CB615" fill-rule="nonzero">
            <path d="M19.6638655,19.0689076 C20.0504202,18.4 19.8218487,17.5394958 19.1529412,17.1529412 C18.4840336,16.7697479 17.6235294,16.9983193 17.2369748,17.6672269 C16.8504202,18.3361345 17.0823529,19.1966387 17.7512605,19.5831933 C17.9663866,19.707563 18.2084034,19.7714286 18.4504202,19.7714286 C18.5714286,19.7714286 18.6957983,19.7546218 18.8168067,19.7210084 C19.1731092,19.6235294 19.4756303,19.3915966 19.6638655,19.0689076 L19.6638655,19.0689076 Z M16.3529412,14.8605042 C16.4537815,14.9647059 16.5882353,15.0151261 16.7193277,15.0151261 C16.8504202,15.0151261 16.9781513,14.9647059 17.0789916,14.8672269 L18.6420168,13.3310924 L17.9159664,12.605042 L16.3596639,14.1344538 C16.1579832,14.3327731 16.1546218,14.6588235 16.3529412,14.8605042 L16.3529412,14.8605042 Z M13.3277311,13.5798319 L16.1109244,10.7932773 L15.3848739,10.0672269 L12.6016807,12.8537815 C12.4,13.0554622 12.4,13.3815126 12.6016807,13.5798319 C12.702521,13.6806723 12.8336134,13.7310924 12.9647059,13.7310924 C13.092437,13.7310924 13.2268908,13.6806723 13.3277311,13.5798319 L13.3277311,13.5798319 Z M11.6302521,9.9697479 C11.7613445,9.9697479 11.8890756,9.91932773 11.989916,9.82184874 L13.5764706,8.26218487 L12.8504202,7.53613445 L11.2705882,9.08907563 C11.0689076,9.28739496 11.0655462,9.61344538 11.2638655,9.81512605 C11.3647059,9.91596639 11.4991597,9.9697479 11.6302521,9.9697479 L11.6302521,9.9697479 Z M8.18823529,8.58151261 L11.0420168,5.72436975 L10.3159664,4.99831933 L7.46218487,7.85546218 C7.2605042,8.05714286 7.2605042,8.37983193 7.46218487,8.58151261 C7.56302521,8.68235294 7.69411765,8.73277311 7.82521008,8.73277311 C7.95630252,8.73277311 8.08739496,8.68235294 8.18823529,8.58151261 Z M6.4907563,4.97142857 C6.62184874,4.97142857 6.74957983,4.92436975 6.85042017,4.82352941 L8.51092437,3.18991597 L7.78487395,2.46386555 L6.13109244,4.0907563 C5.92941176,4.28907563 5.92605042,4.61512605 6.12436975,4.81680672 C6.22521008,4.9210084 6.35966387,4.97142857 6.4907563,4.97142857 Z M23.3042017,17.3210084 C23.5058824,17.589916 23.6235294,17.9159664 23.6235294,18.2588235 C23.6235294,18.6789916 23.4588235,19.0756303 23.1630252,19.3714286 L19.3411765,23.1966387 C19.0453782,23.4957983 18.6487395,23.6571429 18.2285714,23.6571429 C17.8084034,23.6571429 17.4151261,23.4957983 17.1193277,23.1966387 L0.460504202,6.52773109 C-0.151260504,5.91596639 -0.151260504,4.91764706 0.460504202,4.30252101 L4.28571429,0.477310924 C4.87731092,-0.117647059 5.91596639,-0.117647059 6.50756303,0.477310924 L6.7697479,0.739495798 L6.78319328,0.729411765 L23.3378151,17.2907563 L23.3042017,17.3210084 Z" id="Regla-medir-medida_3Masa"></path>
        </g>
    </g>
</svg>

<svg width="24" height="24" viewBox="0 0 24 24" xmlns="http://www.w3.org/2000/svg"><path d="M19.664 19.069a1.404 1.404 0 00-.511-1.916 1.408 1.408 0 00-1.916.514 1.406 1.406 0 001.213 2.104 1.408 1.408 0 001.213-.703zm-3.311-4.208a.51.51 0 00.726.006l1.563-1.536-.726-.726-1.556 1.53a.514.514 0 00-.007.726zm-3.025-1.281l2.783-2.787-.726-.726-2.783 2.787a.511.511 0 000 .726.512.512 0 00.726 0zM11.63 9.97c.131 0 .26-.05.36-.148l1.586-1.56-.726-.726-1.58 1.553a.514.514 0 00.36.88zM8.188 8.582l2.854-2.858-.726-.726-2.854 2.857a.511.511 0 000 .727.512.512 0 00.726 0zm-1.697-3.61a.5.5 0 00.36-.148L8.51 3.19l-.726-.726L6.13 4.09a.514.514 0 00.36.88zM23.304 17.32c.202.269.32.595.32.938 0 .42-.165.817-.461 1.112l-3.822 3.826c-.296.299-.692.46-1.112.46-.42 0-.814-.161-1.11-.46L.461 6.527a1.578 1.578 0 010-2.224L4.286.477c.591-.595 1.63-.595 2.222 0L6.77.74l.013-.01 16.555 16.562-.034.03z" fill="#5CB615" fill-rule="nonzero"/></svg>
